X:1374
T:Cuil Aodha Jig
O:England
M:6/8
L:1/8
S:Martin Hayes
K:G
g|gfd cAd|GFG B2c|dcB cAG|FDD cBA|
G3 GFG|A^GA fga|gfd cAd|GAF G3:|
g3 gfg|ade fga|gfd c2d|cAG FGA|
g3 gfg|ade fga|gfd cAd|GAF G3:|


